assets/svg/weather-icon.svg

<svg width="32" height="32" viewBox="0 0 32 32" fill="none" xmlns="http://www.w3.org/2000/svg">
<g clip-path="url(#clip0_43651_3)">
<path d="M20 28.002C19.447 28.002 19 28.445 19 29.012V30.992C19 31.55 19.443 32.002 20 32.002C20.553 32.002 21 31.559 21 30.992V29.012C21 28.454 20.557 28.002 20 28.002Z" fill="#F1B851"/>
<path d="M12 28.002C11.447 28.002 11 28.445 11 29.012V30.992C11 31.55 11.444 32.002 12 32.002C12.553 32.002 13 31.559 13 30.992V29.012C13 28.454 12.556 28.002 12 28.002Z" fill="#F1B851"/>
<path d="M24 26.002C23.447 26.002 23 26.445 23 27.012V28.992C23 29.55 23.443 30.002 24 30.002C24.553 30.002 25 29.559 25 28.992V27.012C25 26.454 24.557 26.002 24 26.002Z" fill="#F1B851"/>
<path d="M27.586 13.214C27.414 12.758 27.193 12.327 26.93 11.927C26.977 11.625 27 11.316 27 11.002C27 7.68901 24.312 5.00201 21 5.00201C19.467 5.00201 18.068 5.57701 17.008 6.52301C15.576 5.56301 13.854 5.00201 12 5.00201C7.096 5.00201 3.106 8.92601 3.002 13.805C1.207 14.844 0 16.785 0 19.002C0 22.314 2.688 25.002 6 25.002H26C29.312 25.002 32 22.309 32 19.002C32 16.237 30.13 13.909 27.586 13.214ZM21 7.00201C22.839 7.00201 24.389 8.24301 24.855 9.93501C23.876 9.34301 22.729 9.00201 21.5 9.00201C20.859 9.00201 20.24 9.09501 19.656 9.26801C19.337 8.75301 18.968 8.27401 18.556 7.83601C19.23 7.31301 20.079 7.00201 21 7.00201ZM26.003 23.002H5.997C3.794 23.002 2 21.211 2 19.002C2 17.109 3.317 15.52 5.087 15.106C5.029 14.747 5 14.378 5 14.002C5 10.136 8.134 7.00201 12 7.00201C15.162 7.00201 17.834 9.09901 18.702 11.977C19.471 11.366 20.441 11.002 21.5 11.002C23.816 11.002 25.725 12.752 25.973 15.002H26.003C28.206 15.002 30 16.793 30 19.002C30 21.207 28.211 23.002 26.003 23.002Z" fill="#F1B851"/>
<path d="M16 26.002C15.447 26.002 15 26.445 15 27.012V28.992C15 29.55 15.444 30.002 16 30.002C16.553 30.002 17 29.559 17 28.992V27.012C17 26.454 16.557 26.002 16 26.002Z" fill="#F1B851"/>
<path d="M27.3729 6.047L28.7729 4.646C29.1689 4.252 29.1719 3.619 28.7809 3.225C28.3899 2.835 27.7599 2.832 27.3589 3.232L25.9589 4.633C25.5639 5.027 25.5589 5.66 25.9519 6.054C26.3429 6.444 26.9729 6.447 27.3729 6.047Z" fill="#F1B851"/>
<path d="M8 26.002C7.447 26.002 7 26.445 7 27.012V28.992C7 29.55 7.444 30.002 8 30.002C8.553 30.002 9 29.559 9 28.992V27.012C9 26.454 8.556 26.002 8 26.002Z" fill="#F1B851"/>
<path d="M21 4.00201C21.553 4.00201 22 3.55901 22 2.99201V1.01201C22 0.454014 21.557 0.00201416 21 0.00201416C20.447 0.00201416 20 0.445014 20 1.01201V2.99201C20 3.55001 20.443 4.00201 21 4.00201Z" fill="#F1B851"/>
<path d="M28.0039 11.006C28.0039 11.558 28.4469 12.006 29.0139 12.006H30.9939C31.5519 12.006 32.0039 11.562 32.0039 11.006C32.0039 10.453 31.5609 10.006 30.9939 10.006H29.0139C28.4559 10.006 28.0039 10.449 28.0039 11.006Z" fill="#F1B851"/>
</g>
<defs>
<clipPath id="clip0_43651_3">
<rect width="32.004" height="32.004" fill="white"/>
</clipPath>
</defs>
</svg>

<?xml version="1.0" encoding="iso-8859-1"?>
<!-- Generator: Adobe Illustrator 18.1.1, SVG Export Plug-In . SVG Version: 6.00 Build 0)  -->
<svg version="1.1" id="Capa_1" xmlns="http://www.w3.org/2000/svg" xmlns:xlink="http://www.w3.org/1999/xlink" x="0px" y="0px"
	 viewBox="0 0 32.004 32.004" style="enable-background:new 0 0 32.004 32.004;" xml:space="preserve">
<g>
	<g>
		<path style="fill:#030104;" d="M20,28.002c-0.553,0-1,0.443-1,1.01v1.98c0,0.558,0.443,1.01,1,1.01c0.553,0,1-0.443,1-1.01v-1.98
			C21,28.454,20.557,28.002,20,28.002z"/>
		<path style="fill:#030104;" d="M12,28.002c-0.553,0-1,0.443-1,1.01v1.98c0,0.558,0.444,1.01,1,1.01c0.553,0,1-0.443,1-1.01v-1.98
			C13,28.454,12.556,28.002,12,28.002z"/>
		<path style="fill:#030104;" d="M24,26.002c-0.553,0-1,0.443-1,1.01v1.98c0,0.558,0.443,1.01,1,1.01c0.553,0,1-0.443,1-1.01v-1.98
			C25,26.454,24.557,26.002,24,26.002z"/>
		<path style="fill:#030104;" d="M27.586,13.214c-0.172-0.456-0.393-0.887-0.656-1.287c0.047-0.302,0.07-0.611,0.07-0.925
			c0-3.313-2.688-6-6-6c-1.533,0-2.932,0.575-3.992,1.521C15.576,5.563,13.854,5.002,12,5.002c-4.904,0-8.894,3.924-8.998,8.803
			C1.207,14.844,0,16.785,0,19.002c0,3.312,2.688,6,6,6h20c3.312,0,6-2.693,6-6C32,16.237,30.13,13.909,27.586,13.214z M21,7.002
			c1.839,0,3.389,1.241,3.855,2.933c-0.979-0.592-2.126-0.933-3.355-0.933c-0.641,0-1.26,0.093-1.844,0.266
			c-0.319-0.515-0.688-0.994-1.1-1.432C19.23,7.313,20.079,7.002,21,7.002z M26.003,23.002H5.997c-2.203,0-3.997-1.791-3.997-4
			c0-1.893,1.317-3.482,3.087-3.896C5.029,14.747,5,14.378,5,14.002c0-3.866,3.134-7,7-7c3.162,0,5.834,2.097,6.702,4.975
			c0.769-0.611,1.739-0.975,2.798-0.975c2.316,0,4.225,1.75,4.473,4h0.03c2.203,0,3.997,1.791,3.997,4
			C30,21.207,28.211,23.002,26.003,23.002z"/>
		<path style="fill:#030104;" d="M16,26.002c-0.553,0-1,0.443-1,1.01v1.98c0,0.558,0.444,1.01,1,1.01c0.553,0,1-0.443,1-1.01v-1.98
			C17,26.454,16.557,26.002,16,26.002z"/>
		<path style="fill:#030104;" d="M27.373,6.047l1.4-1.401c0.396-0.394,0.399-1.027,0.008-1.421c-0.391-0.39-1.021-0.393-1.422,0.007
			l-1.4,1.401c-0.395,0.394-0.4,1.027-0.007,1.421C26.343,6.444,26.973,6.447,27.373,6.047z"/>
		<path style="fill:#030104;" d="M8,26.002c-0.553,0-1,0.443-1,1.01v1.98c0,0.558,0.444,1.01,1,1.01c0.553,0,1-0.443,1-1.01v-1.98
			C9,26.454,8.556,26.002,8,26.002z"/>
		<path style="fill:#030104;" d="M21,4.002c0.553,0,1-0.443,1-1.01v-1.98c0-0.558-0.443-1.01-1-1.01c-0.553,0-1,0.443-1,1.01v1.98
			C20,3.55,20.443,4.002,21,4.002z"/>
		<path style="fill:#030104;" d="M28.004,11.006c0,0.552,0.443,1,1.01,1h1.98c0.558,0,1.01-0.444,1.01-1c0-0.553-0.443-1-1.01-1
			h-1.98C28.456,10.006,28.004,10.449,28.004,11.006z"/>
	</g>
</g>
<g>
</g>
<g>
</g>
<g>
</g>
<g>
</g>
<g>
</g>
<g>
</g>
<g>
</g>
<g>
</g>
<g>
</g>
<g>
</g>
<g>
</g>
<g>
</g>
<g>
</g>
<g>
</g>
<g>
</g>
</svg>
